X: 25
M:C|
L:1/8
K:A
vA2 (uc>.A) ve>A(uf>.A)|"Segue"e>Af>A e>cB>c|\
|:vA2 c>e a2a>f|e>fe>d c>dB>c|\
a>ga>e f>ae>c|d>Bc>A B>AF>G|\


